!!!OTL: Ich verkauf mein Gut (Band 1), S. 159
!!!id: P0828
**kern
*clefG2
*k[]
*F:
{16c
16c
=1
8f
8f
8g
8g
=2
4a
8a}
=3
{8g
=4
4f
16f
16f
16a
16f
=5
4e}
8r
=6
{8e
=7
16d
16d
8d
8f
8d
=8
8c
8f
8f}
=9
{16f
16f
=10
8g
8g
8e
8e
=11
4f}
8r
==
*-
!!!minrhy: 16
!!!meters: 2/4 ]  ZZ[4
!!!cut: Ich verkauf mein Gut (Band 1), S. 159
!!!reg: Lothringen
!!!trd: PINCK, Louis: Verklingende Weisen, Bd 1, Metz 1928
!!!rhy1: XX  X_X_X_X_  X__X_
!!!rhy2: X_  X__XXXX  X__0_
!!!key: P0828  16  F 2/4 ]  ZZ[4
!!!mod: SECHSTONSKALA DUR ?]  AMBITUS[6
!!!kad: 3-711
!!!akz: 13_1-7_-6-5_21_
!!!fot: 'a__b__c__d__
!!!for: 'a__b__c__a__
!!!fok: '/__\__Va_-__
!! PHRAS[AUFTAKTIG]
!!!fkt: Auswandererlied, Abschied
!! LOTH VKL
!! PR[15] 2K[4] 2G[23] 3K[4] 3G[0] 4A[4] 4Ü[0] 5A[0] 6K[0] 6G[0]
!! 7K[0] 7G[0] 8A[0] MEHR[0] SI[35] ABS[26] SR[27] SP[8]
!! ST[0] 2k[12] 2g[31] 3k[0] 3g[4] 4d[4] 4ü[0] 5d[0] 6k[0] 6g[0]
!! 7k[0] 7g[0] 8d[0] mehr[0] si[50] dm[-15] sr[42] sp[8]
!! 1F[81] 2F[19] 3F[0] 4F[0] LF[0] 2P[0] 3P[0] 4P[0] TRI[0] DF[2] AB[27]
!! TF[0] U3K[0] U3[0] U4[0] U4Ü[0] U5[0] U6K[0] U6[0] U7K[0] U7[0]
!! N1[11] N2K[0] N2[7] N3K[15] N3[0] N4[19] N4Ü[0] N5[26] N6K[0] N6[7]
!!!n7k: 7] N7[0] O1[7] O2K[0] O2[0] O3K[0] O3[0] HÖ[0
